config/_h5ai/public/images/ui/preview-fullscreen.svg

<svg xmlns:svg="http://www.w3.org/2000/svg" xmlns="http://www.w3.org/2000/svg" width="24" height="24" viewBox="0 0 24 24" version="1.1">
  <path d="M7 14h-2v5h5v-2h-3v-3zm-2-4h2v-3h3v-2h-5v5zm12 7h-3v2h5v-5h-2v3zm-3-12v2h3v3h2v-5h-5z" fill="#fff"/>
</svg>

<svg width="24" height="24" viewBox="0 0 24 24" fill="none" xmlns="http://www.w3.org/2000/svg">
<path d="M7 14H5V19H10V17H7V14ZM5 10H7V7H10V5H5V10ZM17 17H14V19H19V14H17V17ZM14 5V7H17V10H19V5H14Z" fill="#DCE0E8"/>
</svg>
